assets/images/icons/imu.svg

<svg height="400" viewBox="0 0 400 400" width="400" xmlns="http://www.w3.org/2000/svg"><path d="m178.359 94.751-20.528 34.363 14.955 1.601 14.954 1.602-1.465 41.097-1.465 41.096-27.848 16.599c-32.714 19.498-38.724 20.457-43.038 6.866-5.064-15.955-9.499-12.422-29.438 23.452-24.342 43.795-25.094 42.37 22.385 42.37 34.477 0 40.556-1.215 37.975-7.594-1.691-4.178-4.23-10.444-5.642-13.925-1.568-3.861 10.277-13.238 30.379-24.05l32.949-17.722 32.948 17.722c23.757 12.778 32.096 19.84 29.894 25.316-1.68 4.178-4.219 10.443-5.642 13.924-1.944 4.756 7.617 6.329 38.46 6.329 47.479 0 46.727 1.425 22.385-42.37-19.939-35.874-24.374-39.407-29.438-23.452-4.314 13.591-10.324 12.632-43.038-6.866l-27.848-16.599-1.465-41.096-1.465-41.097 15.015-1.602 15.016-1.601-19.834-32.896c-25.376-42.088-24.903-42.073-49.161-1.467" fill-rule="evenodd"/></svg>

<svg id="svg" xmlns="http://www.w3.org/2000/svg" xmlns:xlink="http://www.w3.org/1999/xlink" width="400" height="400" viewBox="0, 0, 400,400" version="1.1"><g id="svgg"><path id="path0" d="M178.359 94.751 L 157.831 129.114 172.786 130.715 L 187.740 132.317 186.275 173.414 L 184.810 214.510 156.962 231.109 C 124.248 250.607,118.238 251.566,113.924 237.975 C 108.860 222.020,104.425 225.553,84.486 261.427 C 60.144 305.222,59.392 303.797,106.871 303.797 C 141.348 303.797,147.427 302.582,144.846 296.203 C 143.155 292.025,140.616 285.759,139.204 282.278 C 137.636 278.417,149.481 269.040,169.583 258.228 L 202.532 240.506 235.480 258.228 C 259.237 271.006,267.576 278.068,265.374 283.544 C 263.694 287.722,261.155 293.987,259.732 297.468 C 257.788 302.224,267.349 303.797,298.192 303.797 C 345.671 303.797,344.919 305.222,320.577 261.427 C 300.638 225.553,296.203 222.020,291.139 237.975 C 286.825 251.566,280.815 250.607,248.101 231.109 L 220.253 214.510 218.788 173.414 L 217.323 132.317 232.338 130.715 L 247.354 129.114 227.520 96.218 C 202.144 54.130,202.617 54.145,178.359 94.751 " stroke="none" fill="#000000" fill-rule="evenodd"></path></g></svg>
